X:209
T:Gånglåt efter Hjalmar Thorsjö
T:(SvL Småland 209)
B:Svenska Låtar Småland
R:Gånglåt
B:Svenska Låtar Småland
S:Hjalmar Thorsjö
M:2/4
L:1/8
K:Bb
bf/e/ dd/c/|BB/d/ F2|BB/d/ cc/e/|df ca|
bf/e/ dd/c/|BB/d/ F2|BB/d/ c/e/c/A/|Bc/d/ [DB]2:|
|:cc/e/ dd/B/|cc/e/ d2|=e/f/g/a/ b/g/e/g/|fg/a/ f2|
bf/e/ dd/c/|BB/d/ F2|BB/d/ c/e/c/A/|Bc/d/ [DB]2:|

